images/favicon.svg

<svg fill="none" height="16" viewBox="0 0 16 16" width="16" xmlns="http://www.w3.org/2000/svg"><path clip-rule="evenodd" d="m11.5002 5c.8284 0 1.5-.67157 1.5-1.5s-.6716-1.5-1.5-1.5-1.5.67157-1.5 1.5.6716 1.5 1.5 1.5zm-6.17069-1.65835c.2764-.55278 1.06525-.55278 1.34164 0l2.97608 5.95216 1.19907-2.13171c.2867-.50974 1.0207-.50974 1.3074 0l3.2176 5.7202c.2812.5-.0801 1.1177-.6537 1.1177h-3.9262-.0046-9.57294c-.557538 0-.92016-.5867-.670822-1.0854z" fill="#df1659" fill-rule="evenodd"/></svg>

<svg width="16" height="16" viewBox="0 0 16 16" fill="none" xmlns="http://www.w3.org/2000/svg">
<path fill-rule="evenodd" clip-rule="evenodd" d="M11.5002 5C12.3286 5 13.0002 4.32843 13.0002 3.5C13.0002 2.67157 12.3286 2 11.5002 2C10.6718 2 10.0002 2.67157 10.0002 3.5C10.0002 4.32843 10.6718 5 11.5002 5ZM5.32951 3.34165C5.60591 2.78887 6.39476 2.78887 6.67115 3.34165L9.64723 9.29381L10.8463 7.1621C11.133 6.65236 11.867 6.65236 12.1537 7.1621L15.3713 12.8823C15.6525 13.3823 15.2912 14 14.7176 14H10.7914L10.7868 14H1.21386C0.656322 14 0.2937 13.4133 0.543038 12.9146L5.32951 3.34165Z" fill="#DF1659"/>
</svg>
